X: 1
A:Adam de la Halle
T:Diex coment porroie
N: (condensed)
M:3/4
L:1/4
Q:1/4=100
K:G Mixolydian
%
V:1 clef=treble
V:2 clef=treble-8 middle=B,
V:3 clef=treble-8 middle=B,
%%MIDI program 1       70 bassoon
%%MIDI program 2       71 clarinet
%%MIDI program 3       72 piccolo
%
[V:1][K:C]       D2 ((3:2:2F/G)   | A2 ((3A/G/F/)|(EDC)  |D3 ||           E2  ((3:2:2F/G)| A2 
[V:2][K:C]       G2     ((3F/E/D/)| E2 ((3G/F/E/)|(D2E)  |G3 ||          (ED) ((3:2:2C/D)| E2 
[V:3][K:F]       G,2       B,     | A,2   B,     | A,3   |G,3||           A,2        B,  | A,2
